X:221
T:Black Cockade. VWMLa.221
%%VWML:Anon2-3049-p140-0
F:http://www.vwml.org/record/Anon2/3049/p140
S:Anon. MS, late 18thC, Vaughan Williams Mem. Library
O:England;Yorkshire
Z:vmp/efdss.Simon Wilson. Reviewed PJH 2008.
M:2/4
L:1/16
Q:1/4=120
K:Bb
B3c d2d2|e4 c2c2|d2B2 A2B2|(cBcd) c4|\
B3c d2d2|e4 c2c2|d2B2 ABcA|B4 B,4:|
|:(FB).d.B (FB).d.B|(Ac).e.c (Ac).e.c|\
(FB).d.B (FB).d.B|A2c2 c4|\
(FB).d.B (FB).d.B|(Ac).e.c|\
(Ac).e.c|d2B2 ABcA|B4 B,4:|
T:Lounger. VWMLa.222, The
R:March
S:Anon. MS, late 18thC, Vaughan Williams Mem. Library
O:England;Yorkshire
Z:vmp/efdss.Simon Wilson. Reviewed PJH 2008.
M:2/4
L:1/8
Q:1/4=120
K:D
f3g|a2f2|gedc|d/c/d/e/ dA|\
f3g|a2f2|gedc|d2d2:|
AdAd|cdef|gedc|d/e/f/e/ dA|\
AdAd|cdef|gedc|d2d2|
FF FE/F/|GGGA|FF FA/F/|EEED|\
FF FE/F/|GGGB|AGFE|D2D2|
ff fe/f/|ggga|ff fa/f/|eeed|\
ff fe/f/|gggb|agfe|d2d2|
|:AA dd/e/|fff2|gedc|d/c/d/e/ dA|\
AA dd/e/|fff2|g2e2|d2z2:|
